X:1
T:Title
%%score ( 1 2 ) { 3 | 4 }
L:1/8
Q:1/4=100
M:6/8
K:F
V:1 treble nm="Grand Piano, Soprano"
V:2 treble 
V:3 treble nm="Choir Pad, Go, Tell Them"
V:4 bass 
V:1
 [FA][FA][FA] [FB]2 [FB] | [FA]3 [CF]3 | [CE][CE][CF] [EG]2 [EA] | F6 | [Fc][Fc][Fc] [Fd]2 [Fd] | %5
w: By~Carl~Fisher * * * *|||||
 [Fc]3 [FA]3 | [DF][DE][DF] [FA]2 [FG] | [EG]6 | [FA][FA][FA] [FB]2 [FB] | [FA]3 [CF]3 | %10
w: |||||
 [Fc][Fc][Fc] [Fd]2 [Fd] | [Fc]6 | [Fd][Fd][Fd] [FB]2 [Fd] | [Fc]3 [Fc]2 [FB] | %14
w: ||||
 [FA][FA][FA] [EG]2 [CG] | [CF]6 | G3 c3 | A3 z3 | [Fd][Fd][Fd] [Ff]2 [Fd] | [Fc]6 | %20
w: ||||||
 [Fd][Fd][Fd] [FB]2 [Fd] | [Fc]3 [Fc]2 [FB] | [FA][FA][FA] [EG]2 [CG] | [CF]6- | [CF]3 z3 |] %25
w: |||||
V:2
 x6 | x6 | x6 | x6 | x6 | x6 | x6 | x6 | x6 | x6 | x6 | x6 | x6 | x6 | x6 | x6 | EEE E2 E | %17
 FFF [Fc]3 | x6 | x6 | x6 | x6 | x6 | x6 | x6 |] %25
V:3
 CCC D2 D | C3[K:bass] A,3 | G,G,A, B,2 C | A,6 | A,A,A, B,2 B, | A,3 C3 | =B,B,B, B,2 B, | C6 | %8
 CCC D2 D | C3[K:bass] A,3 | A,A,A, B,2 B, | A,6 | B,B,B, B,2 B, | A,3[K:treble] C2 D | %14
 CCC[K:bass] B,2 B, | A,6 | CC[K:treble]C G,2 C | CCC[K:bass] A,3 | B,3 D2 B, | A,2 A, .A,3 | %20
 B,B,B, B,2 B, | A,3[K:treble] C2 D | CCC[K:bass] B,2 B, | A,6- | A,3 z3 |] %25
V:4
 F,F,F, F,2 F, | F,3 F,3 | C,C,C, C,2 C, | F,6 | F,F,F, F,2 F, | F,3 F,3 | G,G,G, D,2 G,, | C,6 | %8
 F,F,F, F,2 F, | F,3 F,3 | F,F,F, F,2 F, | F,6 | B,,B,,B,, D,2 B,, | F,3 A,,2 B,, | C,C,C, C,2 C, | %15
 F,6 | C,C,C, C,2 C, | F,F,F, F,3 | z3 B,,2 B,, | F,2 F, .F,3 | B,,B,,B,, D,2 B,, | F,3 A,,2 B,, | %22
 C,C,C, C,2 C, | F,6- | F,3 z3 |] %25

